!!!!SEGMENT: pl-wnifc--3119-n--011_szymanowska-maria--duoze-exercices-no-11-con-spirito.krn
!!!cenid: 18xx:3843
!!!COM: Szymanowska, Maria
!!!COM-rismID: pe140138
!!!CDT: 1789/12/14-1831/07/25
!!!CNT: Polish
!!!GTL: Duoze Exercices
!!!OTL: No. 11. Con spirito
!!!PDT: 1825
!!!AGN:
!!!SMS-siglum: PL-Wnifc
!!!SMS-shelfmark: 3119/n
!!!SMS-shelfwork: 011 G
!!!SMS-variant:
!!!SMS-altvar:
!!!NIFC-rismSourceID:
!!!NIFC-islandoraID: nifc:212170
!!!URL-pdf-islandora: https://repozytorium.nifc.pl/islandora/object/nifc%3A212170/datastream/PDF/view
!!!URL-scan: https://polish.musicsources.pl/pl/lokalizacje/galeria/druki-muzyczne/16830 @EN{Scan on Polish Music Sources Website} @PL{Skany w portalu Dziedzictwo Muzyki Polskiej w otwartym dostępie}
!!!ONB-nifc:
!!!AIN: 2 piano
!!!key: A-
**kern	**fing	**kern	**fing	**dynam
*part1	*part1	*part2	*part2	*part2
*staff2	*	*staff1	*	*
*I"Piano	*	*I"Piano	*	*
*Ipiano	*	*Ipiano	*	*
*ICklav	*	*ICklav	*	*
*clefF4	*	*clefG2	*	*
*k[b-e-a-d-]	*	*k[b-e-a-d-]	*	*
*A-:	*	*A-:	*	*
*M3/8	*	*M3/8	*	*
*>[A,A1,A2,B]	*	*>[A,A1,A2,B]	*	*
*>A	*	*>A	*	*
=1	=1	=1	=1	=1
!	!	!LO:TX:a:i:t=Con spirito	!	!
8AA-/L	3	4c/ 4e- 4a-	.	.
16qqBB-/LL	.	.	.	.
16qqAA-/	.	.	.	.
16qqGG/JJ	.	.	.	.
(<16AA-`/L	3	.	.	.
16C`/	1	.	.	.
16E-`/	3	8r	.	.
16G`/JJ	1	.	.	.
=2	=2	=2	=2	=2
8A-\L)	3	4.r	.	.
16qqB-/LL	.	.	.	.
16qqA-/	.	.	.	.
16qqG/JJ	.	.	.	.
(16A-`\L	.	.	.	.
16c`\	.	.	.	.
16e-`\	.	.	.	.
16g`\JJ)	.	.	.	.
*clefG2	*	*	*	*
=3	=3	=3	=3	=3
8a-\L	.	4cc\ 4ee- 4aa-	.	.
16qqb-/LL	.	.	.	.
16qqa-/	.	.	.	.
16qqg/JJ	.	.	.	.
(16a-'\L	.	.	.	.
16cc'\	.	.	.	.
16ee-'\	.	8r	.	.
16gg'\JJ)	.	.	.	.
=4	=4	=4	=4	=4
16aa-`\LL	.	4.r	.	.
16gg`\	.	.	.	.
16ff`\	.	.	.	.
16ee-`\	.	.	.	.
16dd-`\	.	.	.	.
16cc`\JJ	.	.	.	.
=5	=5	=5	=5	=5
8ee-\L	2	[4.gg\ [4.bb- [4.ddd- [4.eee-	.	.
16qqff/LL	.	.	.	.
16qqee-/	.	.	.	.
16qqddn/JJ	.	.	.	.
16ee-\L	2	.	.	.
16cc\	3	.	.	.
16b-\	4	.	.	.
16g\JJ	1	.	.	.
=6	=6	=6	=6	=6
8e-/L	.	4.gg\] 4.bb-] 4.ddd-] 4.eee-]	.	.
16qqf/LL	.	.	.	.
16qqe-/	.	.	.	.
16qqdn/JJ	.	.	.	.
16e-/L	.	.	.	.
16d-X/	.	.	.	.
16B-/	.	.	.	.
16G/JJ	.	.	.	.
*clefF4	*	*	*	*
=7	=7	=7	=7	=7
8E-/L	.	[4.g\ [4.b- [4.dd- [4.ee-	.	.
16qqF/LL	.	.	.	.
16qqE-/	.	.	.	.
16qqDn/JJ	.	.	.	.
16E-/L	.	.	.	.
16D-X/	.	.	.	.
16BB-/	.	.	.	.
16GG/JJ	.	.	.	.
=8	=8	=8	=8	=8
16EE-/LL	.	4g\] 4b-] 4dd-] 4ee-]	.	.
16FF/	.	.	.	.
16EE-/	.	.	.	.
16DD-/	.	.	.	.
16CC/	.	8r	.	.
16BBB-/JJ	.	.	.	.
!!LO:LB:g=original
=9	=9	=9	=9	=9
8AAA-/	.	8A-/L	2	.
.	.	16qqB-/LL	.	.
.	.	16qqA-/	.	.
.	.	16qqG/JJ	.	.
4EE-^/ 4AA- 4C	.	16A-/L	2	.
.	.	16c/	1	.
.	.	16e-/	2	.
.	.	16g/JJ	3	.
=10	=10	=10	=10	=10
8AA-/	.	8a-\L	4	.
.	.	16qqb-/LL	.	.
.	.	16qqa-/	.	.
.	.	16qqg/JJ	.	.
4E-^<\ 4A- 4c	.	16a-\L	2	.
.	.	16cc\	.	.
.	.	16ee-\	.	.
.	.	16gg\JJ	.	.
=11	=11	=11	=11	=11
8A-\	.	8aa-\L	.	.
.	.	16qqbb-/LL	.	.
.	.	16qqaa-/	.	.
.	.	16qqgg/JJ	.	.
*clefG2	*	*	*	*
4e-^>/ 4a- 4cc	.	16aa-\L	.	.
.	.	16ccc\	.	.
.	.	16eee-\	.	.
.	.	16ggg\JJ	.	.
*clefF4	*	*	*	*
=12	=12	=12	=12	=12
8A-\	.	(16aaa-`\LL	.	.
.	.	16ggg`\	.	.
*clefG2	*	*	*	*
4e-^>/ 4a- 4cc	.	16fff`\	.	.
.	.	16eee-`\	.	.
.	.	16ddd-`\	.	.
.	.	16ccc`\JJ)	.	.
*clefF4	*	*	*	*
=13	=13	=13	=13	=13
8E-\	.	8eee-\L	.	.
.	.	16qqfff/LL	.	.
.	.	16qqeee-/	.	.
.	.	16qqdddn/JJ	.	.
*clefG2	*	*	*	*
4e-^>/ 4b- 4dd-	.	16eee-\L	.	.
.	.	16ddd-X\	.	.
.	.	16bb-\	.	.
.	.	16gg\JJ	.	.
*clefF4	*	*	*	*
=14	=14	=14	=14	=14
8EE-/	.	8ee-\L	.	.
.	.	16qqff/LL	.	.
.	.	16qqee-/	.	.
.	.	16qqddn/JJ	.	.
4E-\ 4B- 4d-	.	16ee-\L	.	.
.	.	16dd-X\	.	.
.	.	16b-\	.	.
.	.	16g\JJ	.	.
=15	=15	=15	=15	=15
8EE-/	.	8e-/L	.	.
.	.	16qqf/LL	.	.
.	.	16qqe-/	.	.
.	.	16qqdn/JJ	.	.
4E-\ 4B- 4d-	.	16e-/L	.	.
.	.	16d-X/	.	.
.	.	16B-</	.	.
.	.	16G</JJ	.	.
=16	=16	=16	=16	=16
16r	.	16E-</	.	.
16F\LL	.	16r<	.	.
16E-\	.	4r	.	.
16D-\	.	.	.	.
16C\	.	.	.	.
16BB-\JJ	.	.	.	.
=17	=17	=17	=17	=17
8AA-/L	.	4c/ 4e- 4a-	.	.
16qqBB-/LL	.	.	.	.
16qqAA-/	.	.	.	.
16qqGG/JJ	.	.	.	.
16AA-/L	.	.	.	.
16C/	.	.	.	.
16E-/	.	8r	.	.
16G/JJ	.	.	.	.
=18	=18	=18	=18	=18
8A-\L	.	4.r	.	.
16qqB-/LL	.	.	.	.
16qqA-/	.	.	.	.
16qqG/JJ	.	.	.	.
16A-\L	.	.	.	.
16c\	.	.	.	.
16e->\	.	.	.	.
16f>\JJ	.	.	.	.
!!LO:LB:g=original
=19	=19	=19	=19	=19
4.r	.	8a-\	.	.
.	.	16qqb-/LL	.	.
.	.	16qqa-/	.	.
.	.	16qqg/JJ	.	.
.	.	16a-\LL	.	.
.	.	16cc\	.	.
.	.	16ee-\	.	.
.	.	16gg\JJ	.	.
=20	=20	=20	=20	=20
8AA-/	.	16aa-\	.	.
.	.	16ccc\LL 16eee-	2 4	.
8E-\L	.	16bbn\ 16dddn	1 3	.
.	.	16ccc\ 16eee-	2 4	.
8A-\J 8c	.	16ddd-X\ 16fff	2 5	.
.	.	16ccc\JJ 16eee-	2 4	.
=21	=21	=21	=21	=21
8EE-/L	.	8gg\ 8eee-	.	1 4
16qqFF/LL	.	.	.	.
16qqEE-/	.	.	.	.
16qqDDn/JJ	.	.	.	.
16EE-/L	.	[4gg\ [4ddd-	1 3	.
16GG/	.	.	.	.
16BB-/	.	.	.	.
16Dn/JJ	.	.	.	.
=22	=22	=22	=22	=22
8E-\L	.	4gg\] 4ddd-]	.	.
16qqF/LL	.	.	.	.
16qqE-/	.	.	.	.
16qqDn/JJ	.	.	.	.
16E-\L	.	.	.	.
16G\	.	.	.	.
16B-\	.	8r	.	.
16dn\JJ	.	.	.	.
=23	=23	=23	=23	=23
8e-\	.	8r	.	.
.	.	16qqf/LL	.	.
.	.	16qqe-/	.	.
.	.	16qqdn/JJ	.	.
4r	.	16e-/LL	.	.
.	.	16g/	.	.
.	.	16b-/	.	.
.	.	16ddn/JJ	.	.
=24	=24	=24	=24	=24
8EE-/	.	16ee-\	.	.
.	.	16bb-\LL 16ddd-X	.	.
8.EE-/L 8.E-	.	16aan\ 16ccc	.	.
.	.	16bb-\ 16ddd-	.	.
.	.	16ccc\ 16eee-	.	.
16EEn^>/Jk 16En	.	16bb-\JJ 16ddd-	.	.
=25	=25	=25	=25	=25
8FF/ 8F	.	(8aa-X\ 8ddd-	.	p
16qqG/LL	.	.	.	.
16qqF/	.	.	.	.
16qqEn/JJ	.	.	.	.
16F\LL	.	4aa-\) 4ccc	.	.
16G\	.	.	.	.
16A-\	.	.	.	.
16F\JJ	.	.	.	.
=26	=26	=26	=26	=26
*	*	*^	*	*
4C/	.	4ccc/	8een\	.	fp
.	.	.	16qqff/LL	.	.
.	.	.	16qqee/	.	.
.	.	.	16qqddn/JJ	.	.
.	.	.	16ee\LL	.	.
.	.	.	16ff\	.	.
8C/	.	8bb-/	16gg\	.	.
.	.	.	16ee\JJ	.	.
=27	=27	=27	=27	=27	=27
8F\	.	8bb-/	4.cc\	.	p
16qqG/LL	.	.	.	.	.
16qqF/	.	.	.	.	.
16qqEn/JJ	.	.	.	.	.
16F\LL	.	4aa-/	.	.	.
16G\	.	.	.	.	.
16A-\	.	.	.	.	.
16F\JJ	.	.	.	.	.
!!LO:LB:g=original
=28	=28	=28	=28	=28	=28
4BB-/	.	8ff/ 8gg	4dd-\	.	.
.	.	16qqaa-/LL	.	.	f
.	.	16qqgg/	.	.	.
.	.	16qqff/JJ	.	.	.
.	.	16gg/LL	.	.	.
.	.	16aa-/	.	.	.
8BB-/	.	16bb-/	8dd-\ 8ff	.	.
.	.	16gg/JJ	.	.	.
=29	=29	=29	=29	=29	=29
*^	*	*	*	*	*
[8A-/	4C\	.	8ff/ 8ccc	4cc\	.	p
.	.	.	16qqgg/LL	.	.	.
.	.	.	16qqff/	.	.	.
.	.	.	16qqeen/JJ	.	.	.
16A-/LL]	.	.	16gg/LL	.	.	.
16B-/	.	.	16aa-/	.	.	.
16c/	8C\	.	16bb-/	8cc\	.	.
16A-/JJ	.	.	16gg/JJ	.	.	.
*v	*v	*	*	*	*	*
*	*	*v	*v	*	*
=30	=30	=30	=30	=30
4C\ 4G	.	8cc\ 8een 8ccc	.	f
.	.	16qqdn/LL	.	.
.	.	16qqc/	.	.
.	.	16qqBn/JJ	.	.
.	.	16c/LL	.	.
.	.	16d/	.	.
8C\ 8G 8B-	.	16en/	.	.
.	.	16c/JJ	.	.
=31	=31	=31	=31	=31
8F\ 8A-	.	4f/	.	.
16qqDDn/LL	.	.	.	.
16qqCC/	.	.	.	.
16qqBBBn/JJ	.	.	.	.
16CC/LL	.	.	.	.
16DD/	.	.	.	.
16EEn/	.	8B-^/ 8c 8g	.	.
16CC/JJ	.	.	.	.
*>A1	*	*>A1	*	*
=32	=32	=32	=32	=32
8FF/	.	4A-/ 4c 4f	.	.
16qqFF/LL	.	.	.	.
16qqEE-X/	.	.	.	.
16qqDDn/JJ	.	.	.	.
16EE-X/LL	.	.	.	.
16FF/	.	.	.	.
16GG/	.	8d-/ 8e- 8b-	.	.
16EE-/JJ	.	.	.	.
*>A2	*	*>A2	*	*
=33:|!	=33:|!	=33:|!	=33:|!	=33:|!
8FF/	.	4A-/ 4c 4f	.	.
16qqBB-/LL	.	.	.	.
16qqAA-/	.	.	.	.
16qqGG/JJ	.	.	.	.
16AA-/LL	.	.	.	.
16BB-/	.	.	.	.
16C/	.	8A-^/ 8e- 8g-X	.	.
16AA-/JJ	.	.	.	.
*>B	*	*>B	*	*
=34	=34	=34	=34	=34
8D-\L	.	4A-/ 4d- 4f	.	.
16qqE-/LL	.	.	.	.
16qqD-/	.	.	.	.
16qqC/JJ	.	.	.	.
16D-\L	.	.	.	.
16F\	.	.	.	.
!	!	!LO:TX:b:t=cre-scen-do:problem:dynamics with extension lines	!	!LO:HP:b:t=cre-scen-do:ext=cd
16A-\	.	8r	.	<
16c\JJ	.	.	.	.
*clefG2	*	*	*	*
=35	=35	=35	=35	=35
8d-/L	.	4.r	.	.
16qqe-/LL	.	.	.	.
16qqd-/	.	.	.	.
16qqc/JJ	.	.	.	.
16d-/L	.	.	.	.
16f/	.	.	.	.
16a-/	.	.	.	.
16cc/JJ	.	.	.	.
=36	=36	=36	=36	=36
8dd-\	.	8r	.	.
.	.	16qqee-/LL	.	.
.	.	16qqdd-/	.	.
.	.	16qqcc/JJ	.	.
4r	.	16dd-\LL	.	[
.	.	16ff\	.	.
.	.	16aa-\	.	.
.	.	16ccc\JJ	.	.
*clefF4	*	*	*	*
!!LO:LB:g=original
=37	=37	=37	=37	=37
8D-\	.	16ddd-\	.	.
*	*	*8va	*	*
.	.	16fff\LL 16aaa-	.	f
8A-\L	.	16eeen\ 16ggg	.	.
.	.	16fff\ 16aaa-	.	.
8d-\J 8f	.	16ggg-X\ 16bbb-	.	.
.	.	16fff\JJ 16aaa-	.	.
=38	=38	=38	=38	=38
8AA-\L	.	8ccc\ 8aaa-	.	.
16qqBB-/LL	.	.	.	.
16qqAA-/	.	.	.	.
16qqGG/JJ	.	.	.	.
16AA-\L	.	4ccc\ 4eee-X	.	.
16C\	.	.	.	.
16E-\	.	.	.	.
16Gn\JJ	.	.	.	.
*	*	*X8va	*	*
=39	=39	=39	=39	=39
8A-\L	.	4.r	.	.
16qqB-/LL	.	.	.	.
16qqA-/	.	.	.	.
16qqG/JJ	.	.	.	.
16A-\L	.	.	.	.
16c\	.	.	.	.
16e->\	.	.	.	.
16g>\JJ	.	.	.	.
=40	=40	=40	=40	=40
8a->\	.	8rff	.	.
16qryy	.	16qqb-/LL	.	.
.	.	16qqa-/	.	.
.	.	16qqg/JJ	.	.
4r	.	16a-\LL	.	.
.	.	16cc\	.	.
.	.	16ee-\	.	.
.	.	16ff\JJ	.	.
=41	=41	=41	=41	=41
8AA-/	.	16gg-X\	.	.
*	*	*8va	*	*
.	.	16eee-\LL 16ggg-X	.	.
8A-\L	.	16dddn\ 16fff	.	.
.	.	16eee-\ 16ggg-	.	.
8c\J 8g-X	.	16fff\ 16aaa-	.	.
.	.	16eee-\JJ 16ggg-	.	.
=42	=42	=42	=42	=42
8D-\ 8d-	.	8aa-\ 8ddd-X 8ggg-X	.	.
16qqe-/LL	.	.	.	.
16qqd-/	.	.	.	.
16qqc/JJ	.	.	.	.
16d-\LL	.	4aa-\ 4ddd- 4fff	.	.
16e-\	.	.	.	.
16f\	.	.	.	.
16d-\JJ	.	.	.	.
=43	=43	=43	=43	=43
4FF/ 4F	.	8ff\ 8aan 8fff	.	.
*	*	*X8va	*	*
!	!	!LO:TX:a:i:t=loco	!	!
.	.	16qqg/LL	.	.
.	.	16qqf/	.	.
.	.	16qqen/JJ	.	.
.	.	16f/LL	.	.
.	.	16g/	.	.
8F\	.	16e-X/ 16an	.	.
.	.	16f/JJ	.	.
=44	=44	=44	=44	=44
*	*	*^	*	*
8BB-\ 8B-	.	8d-/ 8cc	(4.f\	.	sf
16qqc/LL	.	.	.	.	.
16qqB-/	.	.	.	.	.
16qqAn/JJ	.	.	.	.	.
16B-\LL	.	4d-/ 4b-	.	.	.
16c\	.	.	.	.	.
16d-\	.	.	.	.	.
16B-\JJ	.	.	.	.	.
*	*	*v	*v	*	*
=45	=45	=45	=45	=45
4GG/ 4G	.	8d-/) 8f 8b-	.	.
.	.	16qqf/LL	.	.
.	.	16qqe-/	.	.
.	.	16qqdn/JJ	.	.
.	.	16e-/LL	.	.
.	.	16f/	.	.
8E-\	.	16g/	.	.
.	.	16e-/JJ	.	.
!!LO:PB:g=original
=46	=46	=46	=46	=46
*	*	*^	*	*
8AA-\ 8A-	.	8c/ 8g	(>4.e-\	.	sf
16qqB-/LL	.	.	.	.	.
16qqA-/	.	.	.	.	.
16qqG/JJ	.	.	.	.	.
16A-\LL	.	4c/ 4a-	.	.	.
16B-\	.	.	.	.	.
16c\	.	.	.	.	.
16A-\JJ	.	.	.	.	.
*	*	*v	*v	*	*
=47	=47	=47	=47	=47
4FF/ 4F	.	8c/) 8e- 8a-	.	.
.	.	16qqe-/LL	.	.
.	.	16qqd-/	.	.
.	.	16qqc/JJ	.	.
.	.	16d-/LL	.	.
.	.	16e-/	.	.
8D-\	.	16f/	.	.
.	.	16d-/JJ	.	.
=48	=48	=48	=48	=48
*	*	*^	*	*
8GG\ 8G	.	8B-/ 8a-	(4.d-\	.	sf
16qqA-/LL	.	.	.	.	.
16qqG/	.	.	.	.	.
16qqF/JJ	.	.	.	.	.
16G\LL	.	4B-/ 4g	.	.	.
16A-\	.	.	.	.	.
16B-\	.	.	.	.	.
16G\JJ	.	.	.	.	.
*	*	*v	*v	*	*
=49	=49	=49	=49	=49
4EEn/ 4En	.	8B-/) 8d- 8g	.	.
.	.	16qqdn/LL	.	.
.	.	16qqc/	.	.
.	.	16qqBn/JJ	.	.
.	.	16c/LL	.	.
.	.	16d/	.	.
8C/	.	16en/	.	.
.	.	16c/JJ	.	.
=50	=50	=50	=50	=50
8FF/ 8F	.	8A-/ 8g	.	.
!	!	!	!	!LO:HP:a
16qqG/LL	.	.	.	<
16qqF/	.	.	.	.
16qqEn/JJ	.	.	.	.
16F\LL	.	4A-/ 4f	.	.
16G\	.	.	.	.
16A-\	.	.	.	.
16F\JJ	.	.	.	.
=51	=51	=51	=51	=51
8EE-X/ 8E-X	.	8A-/ 8g	.	.
16qqG/LL	.	.	.	.
16qqF/	.	.	.	.
16qqEn/JJ	.	.	.	.
16F\LL	.	4A-/ 4f	.	.
16G\	.	.	.	.
16A-\	.	.	.	.
16F\JJ	.	.	.	.
=52	=52	=52	=52	=52
8DDn/ 8Dn	.	8A-/ 8g	.	.
16qqG/LL	.	.	.	.
16qqF/	.	.	.	.
16qqEn/JJ	.	.	.	.
16F\LL	.	4A-/ 4f	.	[[
16G\	.	.	.	.
16A-\	.	.	.	.
16F\JJ	.	.	.	.
=53	=53	=53	=53	=53
8DD-X/ 8D-X	.	8f/ 8bn	.	f
.	.	16qqg/LL	.	.
.	.	16qqf/	.	.
.	.	16qqen/JJ	.	.
8D-\L	.	16f/LL	.	.
.	.	16g/	.	.
8d-\J	.	16a-/	.	.
.	.	16f/JJ	.	.
=54	=54	=54	=54	=54
8C\ 8c	.	8en/ 8cc	.	.
16qqdn/LL	.	.	.	.
16qqc/	.	.	.	.
16qqBn/JJ	.	.	.	.
16c\LL	.	8e/L	.	.
16d\	.	.	.	.
16en\	.	8g/J	.	.
16c\JJ	.	.	.	.
!!LO:LB:g=original
=55	=55	=55	=55	=55
*^	*	*	*	*
8C/L	4.C\	.	8f/ 8bn	.	.
.	.	.	16qqg/LL	.	.
.	.	.	16qqf/	.	.
.	.	.	16qqen/JJ	.	.
8dn/	.	.	16f/LL	.	.
.	.	.	16g/	.	.
8Bn/J	.	.	16a-/	.	.
.	.	.	16f/JJ	.	.
*v	*v	*	*	*	*
=56	=56	=56	=56	=56
8C\ 8c	.	8en/ 8cc	.	.
16qqdn/LL	.	.	.	.
16qqc/	.	.	.	.
16qqBn/JJ	.	.	.	.
16c\LL	.	8e/L	.	.
16dn\	.	.	.	.
16en\	.	8g/J	.	.
16c\JJ	.	.	.	.
=57	=57	=57	=57	=57
*^	*	*	*	*
8C/L	4.C\	.	8f/ 8bn	.	.
.	.	.	16qqg/LL	.	.
.	.	.	16qqf/	.	.
.	.	.	16qqen/JJ	.	.
8dn/	.	.	16f/LL	.	.
.	.	.	16g/	.	.
8Bn/J	.	.	16a-/	.	.
.	.	.	16f/JJ	.	.
*v	*v	*	*	*	*
=58	=58	=58	=58	=58
16C\ 16c	.	4.en/ 4.cc	.	.
8qdn/	.	.	.	.
16c\LL	.	.	.	.
16Bn\	.	.	.	.
16c\	.	.	.	.
16dn\	.	.	.	.
16c\JJ	.	.	.	.
=59	=59	=59	=59	=59
*	*	*^	*	*
4d-X\	.	4cc/	16f\LL	.	.
!	!	!LO:TX:b:i:t=ra_len_tan_do:dur=1w6s:ext=ud	!	!	!
.	.	.	8qg/	.	.
.	.	.	16f\	.	.
.	.	.	16en\	.	.
.	.	.	16f\	.	.
8D-X\	.	8b-^/	16g\	.	.
.	.	.	16f\JJ	.	.
*	*	*v	*v	*	*
=60	=60	=60	=60	=60
16EE-/ 16E-	.	4.c/ 4.e- 4.a-	.	.
8qF/	.	.	.	.
16E-\LL	.	.	.	.
16Dn\	.	.	.	.
16E-\	.	.	.	.
16F\	.	.	.	.
16E-\JJ	.	.	.	.
=61	=61	=61	=61	=61
8E-/L	.	16B-/ 16d- 16g	.	.
.	.	8qf/	.	.
.	.	16e-/LL	.	.
8EE-/	.	16dn/	.	.
.	.	16e-/	.	.
8EE-/J	.	16G/ 16d-X 16f	.	.
.	.	16e-/JJ	.	.
=62	=62	=62	=62	=62
!	!	!LO:TX:b:i:t=a tempo	!	!
8AA-\L	.	4A-/ 4c 4e-	.	.
16qqBB-/LL	.	.	.	.
16qqAA-/	.	.	.	.
16qqGG/JJ	.	.	.	.
16AA-\L	.	.	.	.
16C\	.	.	.	.
16E-\	.	8r	.	.
16G\JJ	.	.	.	.
=63	=63	=63	=63	=63
8A-\L	.	4.r	.	.
16qqB-/LL	.	.	.	.
16qqA-/	.	.	.	.
16qqG/JJ	.	.	.	.
16A-\L	.	.	.	.
16c\	.	.	.	.
16e->\	.	.	.	.
16g>\JJ	.	.	.	.
!!LO:LB:g=original
=64	=64	=64	=64	=64
8a->\	.	8rff	.	.
16qryy	.	16qqb-/LL	.	.
.	.	16qqa-/	.	.
.	.	16qqg/JJ	.	.
4r	.	(16a-\LL	.	.
.	.	16cc\	.	.
.	.	16ee-\	.	.
.	.	16gg\JJ)	.	.
=65	=65	=65	=65	=65
8AA-/	.	16aa-`\	.	.
.	.	(16ccc\LL 16eee-	.	.
8E-\L	.	16bbn\ 16dddn	.	.
.	.	16ccc\ 16eee-	.	.
8A-\J 8c	.	16ddd-X\ 16fff	.	.
.	.	16ccc\JJ) 16eee-	.	.
=66	=66	=66	=66	=66
8EE-/L	.	8gg\ 8eee-	.	.
16qqFF/LL	.	.	.	.
16qqEE-/	.	.	.	.
16qqDDn/JJ	.	.	.	.
16EE-/L	.	[4gg\ [4ddd-X	.	.
16GG/	.	.	.	.
16BB-/	.	.	.	.
16Dn/JJ	.	.	.	.
=67	=67	=67	=67	=67
8E-\L	.	4gg\] 4ddd-]	.	.
16qqF/LL	.	.	.	.
16qqE-/	.	.	.	.
16qqDn/JJ	.	.	.	.
16E-\L	.	.	.	.
16G\	.	.	.	.
16B-\	.	8r	.	.
16dn\JJ	.	.	.	.
=68	=68	=68	=68	=68
8e-\	.	8r	.	.
.	.	16qqf/LL	.	.
.	.	16qqe-/	.	.
.	.	16qqdn/JJ	.	.
4r	.	(16e-/LL	.	.
.	.	16g/	.	.
.	.	16b-/	.	.
.	.	16ddn/JJ)	.	.
=69	=69	=69	=69	=69
8EE-/	.	16ee-\	.	.
.	.	(16bb-\LL 16ddd-X	.	.
8E-\L	.	16aan\ 16ccc	.	.
.	.	16bb-\ 16ddd-	.	.
8B-\J 8d-	.	16ccc\ 16eee-	.	.
.	.	16bb-\JJ) 16ddd-	.	.
=70	=70	=70	=70	=70
8AA-\ 8A-	.	8ee-\ 8aa-X 8ddd-	.	.
16qqB-/LL	.	.	.	.
16qqA-/	.	.	.	.
16qqG/JJ	.	.	.	.
16A-\LL	.	4ee-\ 4aa- 4ccc	.	.
16B-\	.	.	.	.
16c\	.	.	.	.
16A-\JJ	.	.	.	.
=71	=71	=71	=71	=71
4D-\ 4d-	.	8dd-\ 8ff 8bb-	.	.
.	.	16qqee-/LL	.	.
.	.	16qqdd-/	.	.
.	.	16qqcc/JJ	.	.
.	.	16dd-\LL	.	.
.	.	16ee-\	.	.
8d-\	.	16ff\	.	.
.	.	16dd-\JJ	.	.
=72	=72	=72	=72	=72
16E-\ 16e-	.	8cc\ 8bb-	.	.
8qf/	.	.	.	.
16e-\LL	.	.	.	.
16dn\	.	4cc\ 4aa-	.	.
16e-\	.	.	.	.
16f\	.	.	.	.
16e-\JJ	.	.	.	.
!!LO:LB:g=original
=73	=73	=73	=73	=73
4e-\	.	16b-\ 16dd- 16gg	.	.
.	.	8qff/	.	.
.	.	16ee-\LL	.	.
.	.	16ddn\	.	.
.	.	16ee-\	.	.
8E-\	.	16ff\	.	.
.	.	16ee-\JJ	.	.
=74	=74	=74	=74	=74
16AA-\ 16A-	.	4.a-\ 4.cc 4.ee- 4.aa-	.	.
8qB-/	.	.	.	.
16A-\LL	.	.	.	.
16G\	.	.	.	.
16A-\	.	.	.	.
16B-\	.	.	.	.
16A-\JJ	.	.	.	.
=75	=75	=75	=75	=75
16AA-\ 16A-	.	4.g-X\ 4.cc 4.ee- 4.gg-X	.	.
8qB-/	.	.	.	.
16A-\LL	.	.	.	.
16Gn\	.	.	.	.
16A-\	.	.	.	.
16B-\	.	.	.	.
16A-\JJ	.	.	.	.
=76	=76	=76	=76	=76
16AA-\ 16A-	.	4.f\ 4.a- 4.dd- 4.ff	.	.
8qB-/	.	.	.	.
16A-\LL	.	.	.	.
16G\	.	.	.	.
16A-\	.	.	.	.
16B-\	.	.	.	.
16A-\JJ	.	.	.	.
=77	=77	=77	=77	=77
16AA-/	.	4.b-^<\ 4.dd- 4.gg	.	.
8qF-X/	.	.	.	.
16E-\LL	.	.	.	.
16Dn\	.	.	.	.
16E-\	.	.	.	.
16F-X\	.	.	.	.
16E-\JJ	.	.	.	.
=78	=78	=78	=78	=78
16AA-/	.	4.a-\ 4.cc 4.aa-	.	.
8qBB-/	.	.	.	.
16AA-/LL	.	.	.	.
16GG/	.	.	.	.
16AA-/	.	.	.	.
16BB-/	.	.	.	.
16AA-/JJ	.	.	.	.
=79	=79	=79	=79	=79
16AAA-/ 16AA-	.	4.G-X/ 4.c 4.e- 4.g-X	.	.
8qBB-/	.	.	.	.
16AA-/LL	.	.	.	.
16GGn/	.	.	.	.
16AA-/	.	.	.	.
16BB-/	.	.	.	.
16AA-/JJ	.	.	.	.
=80	=80	=80	=80	=80
16AAA-/ 16AA-	.	4.F/ 4.A- 4.d- 4.f	.	.
8qBB-/	.	.	.	.
16AA-/LL	.	.	.	.
16GGn/	.	.	.	.
16AA-/	.	.	.	.
16BB-/	.	.	.	.
16AA-/JJ	.	.	.	.
=81	=81	=81	=81	=81
16AAA-/ 16AA-	.	4.B-/ 4.d- 4.g	.	.
8qFF-X/	.	.	.	.
16EE-/LL	.	.	.	.
16DDn/	.	.	.	.
16EE-/	.	.	.	.
16FF-X/	.	.	.	.
16EE-/JJ	.	.	.	.
!!LO:LB:g=original
=82	=82	=82	=82	=82
16AAA-/	.	4.A-/ 4.c 4.a-	.	.
8qFFn/	.	.	.	.
16EE-/LL	.	.	.	.
16DDn/	.	.	.	.
16EE-/	.	.	.	.
16FF/	.	.	.	.
16EE-/JJ	.	.	.	.
=83	=83	=83	=83	=83
!	!	!LO:TX:b:t=di_mi_nu_en_do:problem:dynamics with extension lines	!	!LO:HP:b:t=di_mi_nu_en_do
16AAA-/	.	4.B-/ 4.d-X 4.g	.	>
8qFF-X/	.	.	.	.
16EE-/LL	.	.	.	.
16DDn/	.	.	.	.
16EE-/	.	.	.	.
16FF-/	.	.	.	.
16EE-/JJ	.	.	.	.
=84	=84	=84	=84	=84
16AAA-/	.	4.A-/ 4.c 4.a-	.	.
8qFFn/	.	.	.	.
16EE-/LL	.	.	.	.
16DDn/	.	.	.	.
16EE-/	.	.	.	.
16FF/	.	.	.	.
16EE-/JJ	.	.	.	.
=85	=85	=85	=85	=85
16AAA-/	.	4.B-/ 4.d-X 4.g	.	]]
8qFF-X/	.	.	.	.
16EE-/LL	.	.	.	.
16DDn/	.	.	.	.
16EE-/	.	.	.	.
16FF-/	.	.	.	.
16EE-/JJ	.	.	.	.
=86	=86	=86	=86	=86
8AAA-/L	.	4c/ 4e- 4a-	.	.
16AA-/L	.	.	.	.
16C/	.	.	.	.
16E-/	.	8r	.	.
16G/JJ	.	.	.	.
=87	=87	=87	=87	=87
8A-\	.	8r	.	.
16qqB-/LL	.	.	.	.
16qqA-/	.	.	.	.
!	!	!LO:TX:a:i:t=M.D.	!	!
16qqG/JJ	.	.	.	.
4r	.	16A-/LL	.	.
.	.	16c/	.	.
.	.	16e-/	.	.
.	.	16g/JJ	.	.
=88	=88	=88	=88	=88
8r	.	8a-/	.	.
.	.	16qqb-/LL	.	.
.	.	16qqa-/	.	.
!	!	!LO:TX:b:i:t=M.G.	!	!
.	.	16qqg/JJ	.	.
4ryy	.	16a-\LL	.	.
.	.	16cc\	.	.
.	.	16ee-\	.	.
.	.	16gg\JJ	.	.
=89	=89	=89	=89	=89
4.ryy	.	8aa-^\	.	.
.	.	16qqbb-/LL	.	.
.	.	16qqaa-/	.	.
!	!	!LO:TX:b:i:t=M.D.	!	!
.	.	16qqgg/JJ	.	.
*	*	*8va	*	*
.	.	16aa-/LL	.	.
.	.	16ccc/	.	.
.	.	16eee-/	.	.
.	.	16ggg/JJ	.	.
=90	=90	=90	=90	=90
4r	.	8aaa-\	.	.
*	*	*X8va	*	*
.	.	8r	.	.
!	!	!LO:TX:a:i:t=loco	!	!
(8E-\ 8e-	.	8dd-\ 8gg 8bb- 8eee-	.	.
=91	=91	=91	=91	=91
8A-\)	.	8cc\ 8ee- 8aa- 8ccc	.	.
8r	.	8r	.	.
(8EE-/ 8E-	.	8d-\ 8g 8b- 8ee-	.	.
=92	=92	=92	=92	=92
4.AA-;/)	.	4.c;/ 4.e- 4.a- 4.cc	.	ff
==	==	==	==	==
*-	*-	*-	*-	*-
!!!RDF**kern: > = above
!!!RDF**kern: < = below
!!!system-decoration: {(s1,s2)}
!!!ENC: Marta Opryszak
!!!END: 2022-07-18
!!!ENC: Urszula Świątek
!!!END: 2022-08-19
!!!YEC: Copyright 2022 Narodowy Instytut Fryderyka Chopina (https://polishscores.org)
!!!YEM: Licence CC BY 4.0 (https://creativecommons.org/licenses/by/4.0)
